icons/quote-16.svg

<svg width="16" height="16" viewBox="0 0 16 16" xmlns="http://www.w3.org/2000/svg">
  <path fill-rule="evenodd" clip-rule="evenodd" d="M1.75 2.5C1.33579 2.5 1 2.83579 1 3.25C1 3.66421 1.33579 4 1.75 4H12.25C12.6642 4 13 3.66421 13 3.25C13 2.83579 12.6642 2.5 12.25 2.5H1.75ZM5.75 7.5C5.33579 7.5 5 7.83579 5 8.25C5 8.66421 5.33579 9 5.75 9H14.25C14.6642 9 15 8.66421 15 8.25C15 7.83579 14.6642 7.5 14.25 7.5H5.75ZM5.75 12.5C5.33579 12.5 5 12.8358 5 13.25C5 13.6642 5.33579 14 5.75 14H14.25C14.6642 14 15 13.6642 15 13.25C15 12.8358 14.6642 12.5 14.25 12.5H5.75ZM2.5 7.75C2.5 7.33579 2.16421 7 1.75 7C1.33579 7 1 7.33579 1 7.75V13.75C1 14.1642 1.33579 14.5 1.75 14.5C2.16421 14.5 2.5 14.1642 2.5 13.75V7.75Z"/>
</svg>

<svg xmlns="http://www.w3.org/2000/svg" width="16" height="16" viewBox="0 0 16 16"><path fill-rule="evenodd" d="M1.75 2.5a.75.75 0 000 1.5h10.5a.75.75 0 000-1.5H1.75zm4 5a.75.75 0 000 1.5h8.5a.75.75 0 000-1.5h-8.5zm0 5a.75.75 0 000 1.5h8.5a.75.75 0 000-1.5h-8.5zM2.5 7.75a.75.75 0 00-1.5 0v6a.75.75 0 001.5 0v-6z"/></svg>
